svgs/circuit_electrique.svg

<svg width="192" height="192" viewBox="0 0 192 192" fill="none" xmlns="http://www.w3.org/2000/svg"><path d="M23 72.108C23.95 79.1958 26.3854 86.0032 30.147 92.085C34.265 98.7168 39.8547 104.311 46.483 108.435C52.9323 111.521 59.8206 113.588 66.903 114.565C75.0664 115.685 83.3641 115.339 91.406 113.544C102.863 110.298 113.369 104.339 122.035 96.172C126.194 92.244 129.919 87.792 132.553 82.714C134.357 79.2346 135.63 75.5045 136.329 71.648C136.997 65.023 134.709 58.156 130.203 53.255C127.713 50.547 124.573 48.427 121.1 47.213C118.124 46.1803 114.961 45.8013 111.825 46.102C107.245 46.538 102.92 48.377 98.805 50.435C92.852 53.411 87.115 56.924 82.217 61.429C74.577 68.458 69.155 77.864 66.902 87.997C64.608 94.5505 63.908 101.556 64.86 108.434C66.0373 116.752 69.5815 124.555 75.07 130.915C82.0099 137.306 90.4302 141.871 99.573 144.199C110.268 146.907 121.697 146.41 132.245 143.177C139.554 140.937 146.45 137.411 152.665 132.959C158.863 128.516 164.368 123.178 169 117.12" stroke="black" stroke-width="14" stroke-miterlimit="6" stroke-linecap="round" stroke-linejoin="round"/></svg>

<svg xmlns="http://www.w3.org/2000/svg" width="192" height="192" fill="none" viewBox="0 0 192 192"><path stroke="#000" stroke-linecap="round" stroke-linejoin="round" stroke-miterlimit="6" stroke-width="14" d="M23 72.108a50.847 50.847 0 0 0 23.483 36.327 69.263 69.263 0 0 0 44.923 5.109 74.117 74.117 0 0 0 30.629-17.372c4.159-3.928 7.884-8.38 10.518-13.458a39.25 39.25 0 0 0 3.776-11.066c.668-6.625-1.62-13.492-6.126-18.393-2.49-2.708-5.63-4.828-9.103-6.042a21.91 21.91 0 0 0-9.275-1.111c-4.58.436-8.905 2.275-13.02 4.333-5.953 2.976-11.69 6.489-16.588 10.994-7.64 7.029-13.062 16.435-15.315 26.568a43.716 43.716 0 0 0-2.042 20.437 43.805 43.805 0 0 0 10.21 22.481 56.896 56.896 0 0 0 24.503 13.284c10.695 2.708 22.124 2.211 32.672-1.022 7.309-2.24 14.205-5.766 20.42-10.218A77.134 77.134 0 0 0 169 117.12"/></svg>
